src/parts/tops/LongHairStraight.svg

<svg>
  <g
    id="Top"
    strokeWidth="1"
    fillRule="evenodd"
  >
    <defs>
      <rect
        id="LongHairStraight-path1"
        x="0"
        y="0"
        width="264"
        height="280"
      />
      <path
        id="LongHairStraight-path2"
        d="M133.506381,81.3351151 C137.363649,83.3307002 140,87.3574737 140,92 L140,105 C140,111.018625 135.569129,116.002364 129.791419,116.867187 C128.048193,137.114792 115.530782,154.282984 98,162.610951 L98,162.610951 L98,181 L102,181 C119.490913,181 135.525121,187.236892 148,197.608051 L148,74 C148,53.5654643 139.717268,35.0654643 126.325902,21.6740982 C112.934536,8.28273213 94.4345357,-3.55271368e-15 74,0 C33.1309285,7.10542736e-15 -7.10542736e-15,33.1309285 0,74 L0,257.716445 C13.5691766,255.775526 24,244.105888 24,230 L24,184.423101 C30.9346808,182.200199 38.3271796,181 46,181 L50,181 L50,162.610951 C38.7726252,157.277407 29.6015372,148.317951 24,137.245847 L24,75.2659587 C33.1467898,72.2910056 42.777598,68.0170651 52.3415164,62.4953343 C67.7445474,53.6023901 80.4313947,42.9409152 89.0661426,32.3970356 C90.8310687,37.5951441 93.1752556,42.8009742 96.1104311,47.8848473 C104.877881,63.0705152 117.224186,74.2337047 130,79.9170491 L130,80.1659169 C130.400422,80.233095 130.794121,80.3201038 131.18005,80.4258987 C131.954509,80.7493055 132.730185,81.0524853 133.506381,81.3351151 Z"
      />
    </defs>
    <mask
      id="LongHairStraight-mask1"
      fill="white"
    >
      <use href="#LongHairStraight-path1" />
    </mask>
    <g id="Mask" />
    <g
      id="Top/Long-Hair/Straight"
      mask="url('#LongHairStraight-mask1')"
    >
      <g transform="translate(-1.000000, 0.000000)">
        <g
          id="Hair"
          strokeWidth="1"
          fill="none"
          fillRule="evenodd"
          transform="translate(59.000000, 18.000000)"
        >
          <mask
            id="LongHairStraight-mask2"
            fill="white"
          >
            <use href="#LongHairStraight-path2" />
          </mask>
          <use
            class="CustomColor"
            fill="var(--avataaar-hair-color)"
            href="#LongHairStraight-path2"
          />
        </g>
        <path
          id="Shadow"
          d="M192.506381,99.3351151 C197.3745,101.107702 202.263079,102.071957 207,102.148232 L207,102.148232 L207,92 C207,71.5654643 198.717268,53.0654643 185.325902,39.6740982 C198.717268,53.0654643 207,71.5654643 207,92 L207,215.608051 C194.525121,205.236892 178.490913,199 161,199 L157,199 L157,180.610951 L157,180.610951 C174.530782,172.282984 187.048193,155.114792 188.791419,134.867187 C194.569129,134.002364 199,129.018625 199,123 L199,110 C199,105.357474 196.363649,101.3307 192.506381,99.3351151 Z M190.18005,98.4258987 C189.794121,98.3201038 189.400422,98.233095 189,98.1659169 L189,97.9170491 C189.392974,98.0918644 189.786355,98.2614951 190.18005,98.4258987 Z M83,155.245847 C88.6015372,166.317951 97.7726252,175.277407 109,180.610951 L109,199 L105,199 C97.3271796,199 89.9346808,200.200199 83,202.423101 L83,155.245847 Z"
          opacity="0.24"
          fill="#000000"
          fillRule="evenodd"
        />
      </g>
    </g>
  </g>
</svg>

<svg>
  <g id="Top">
    <defs>
      <path id="LongHairStraight-path1" d="M0 0h264v280H0z"/>
      <path id="LongHairStraight-path2" d="M133.506 81.335A12 12 0 0 1 140 92v13c0 6.019-4.43 11.002-10.209 11.867-1.743 20.248-14.26 37.416-31.791 45.744V181h4c17.49 0 33.525 6.237 46 16.608V74c0-20.435-8.283-38.935-21.674-52.326C112.935 8.283 94.435 0 74 0 33.13 0 0 33.13 0 74v183.716c13.57-1.94 24-13.61 24-27.716v-45.577A71.954 71.954 0 0 1 46 181h4v-18.389a56.234 56.234 0 0 1-26-25.365v-61.98c9.147-2.975 18.778-7.249 28.342-12.77 15.403-8.894 28.09-19.555 36.724-30.099a86.921 86.921 0 0 0 7.044 15.488c8.768 15.186 21.114 26.349 33.89 32.032v.249c.4.067.794.154 1.18.26.775.323 1.55.626 2.326.91Z"/>
    </defs>
    <mask id="LongHairStraight-mask1" fill="#fff">
      <use href="#LongHairStraight-path1"/>
    </mask>
    <g id="Top/Long-Hair/Straight" mask="url('#LongHairStraight-mask1')">
      <g transform="translate(-1)">
        <g id="Hair" fill="none" transform="translate(59 18)">
          <mask id="LongHairStraight-mask2" fill="#fff">
            <use href="#LongHairStraight-path2"/>
          </mask>
          <use fill="var(--avataaar-hair-color)" class="CustomColor" href="#LongHairStraight-path2"/>
        </g>
        <path id="Shadow" fill="#000" d="M192.506 99.335c4.869 1.773 9.757 2.737 14.494 2.813V92c0-20.435-8.283-38.935-21.674-52.326C198.717 53.065 207 71.565 207 92v123.608C194.525 205.237 178.49 199 161 199h-4v-18.389c17.53-8.328 30.048-25.496 31.791-45.744C194.57 134.002 199 129.02 199 123v-13a12 12 0 0 0-6.494-10.665Zm-2.326-.91a12.44 12.44 0 0 0-1.18-.26v-.248c.393.175.786.344 1.18.509ZM83 155.246a56.234 56.234 0 0 0 26 25.366V199h-4c-7.673 0-15.065 1.2-22 3.423v-47.177Z" opacity=".24"/>
      </g>
    </g>
  </g>
</svg>
